X:1
T:Title
%%score { ( 1 3 ) | ( 2 4 ) }
L:1/8
M:4/4
K:Bb
V:1 treble nm="Grand Piano"
V:3 treble 
V:2 bass 
V:4 bass 
V:1
 z4 z2[Q:1/4=100] [DF]2 | [Fd]2 [Fd]2 [Fd]2 [Fd]2 | [Fd]2 [DB]2 [B,D]2 [DF]2 | %3
 [DG]3 [DF] [DG]2 D2 | E4 z FAc | [Ae]2 [Ae]2 [Ae]2 [Ae]2 | [ce]3 [Bd] [Ac]2 [GB]2 | [FA]4 [EG]4 | %8
 [DF]6 [DF][DB] | [Fd]2 [Fd]2 [Fd]2 [Fd]2 | [Fd]2 [DB]2 [EA]2 [FB]2 | [Gc]2 G2 [Gd]2 G2 | %12
 [Ge]6 [Gc]2 | [Ff]4 [Fd]4 | [GB]2 [Ge]2 [Gd]2 [Gc]2 | [FB]4 [EA]4 |[M:3/4] [DB]6 | %17
[M:1/4] [DF][DB] |[M:4/4] [Fe]2 [Bd]2 [Ad]2 [Gd]2 | d2- [Gd-]2 [Fd]2 [DF][DB] | %20
 [Fd]2 [Bd]2 [Ad]2 [Gd]2 | e2- [Ge]2 .[Fe]2 Ac | e4 c2 c2 | d6 z2 | d4 B2 [Gc]2 | A6 FF | %26
 [FB]2 [GB]2 [FB]2 [FB]c | d2 e2 d2 Bd | f6 z2 | d2 c2 d2 Bd | f6 z2 | .d2 [DB][EB] [FB]2 [GB]2 | %32
[M:9/8] .d3[K:bass] F, B,2[K:treble] [cf]3 |[M:3/4] [Bb]6 |] %34
V:2
 z4 z2 [B,,B,]2 | [B,,B,]2 [B,,B,]2 [B,,B,]2 [B,,B,]2 | [B,,B,]2 [B,,B,]2 [B,,F,]2 [B,,B,]2 | %3
 [B,,B,]3 [B,,B,] [B,,B,]2 [B,,F,B,]2 | [C,F,A,]6 z2 | [F,CF]2 [F,CF]2 [F,CF]2 [F,CF]2 | %6
 F,3 F, F,2 F,2 | z2 G,2 F,2 F,2 | [B,,B,]6 [B,,B,][B,,B,] | [B,,B,]2 [B,,B,]2 [B,,B,]2 [B,,B,]2 | %10
 [B,,B,]2 [B,,F,]2 [C,F,]2 [D,B,]2 | [E,B,]2 [E,B,]2 [D,=B,]2 [D,B,]2 | [C,C]6 [E,B,]2 | %13
 [D,B,]4 [B,,B,]4 | [G,D]2 [C,C]2 [D,=B,]2 [E,C]2 | [F,D]4 [F,C]4 |[M:3/4] [B,,B,]6 | %17
[M:1/4] [B,,B,][B,,B,] |[M:4/4] [B,,B,]4 [B,,B,]4 | [B,,B,]2 [B,,B,]2 [B,,B,]2 [B,,B,][B,,B,] | %20
 [B,,B,]4 [B,,B,]4 | [C,A,]2 [C,A,]2 z F C,2 | [F,CF]4 [F,A,F]2 [F,A,E]2 | [^F,A,D]6 z2 | %24
 [G,B,G]4 [G,DG]2[K:bass] [=E,C]2 | [F,CF]6 [E,C][E,C] | %26
 [D,B,]2 [E,B,]2 [D,B,]2 [D,B,][K:treble][F,A,F] | [B,F]2 [B,G]2 [B,F]2 B,D | %28
 F6[K:bass][K:treble] z2 | [B,F]2 [F,A,F]2 [B,F]2 B,D | F6[K:bass][K:treble] z2 | %31
 .[B,F]2[K:bass] [B,,B,][C,B,] [D,B,]2 [E,B,]2 |[M:9/8] .[F,B,F]3 z3 [F,A,E]3 |[M:3/4] [B,,B,D]6 |] %34
V:3
 x8 | x8 | x8 | x8 | z4 E2 z2 | x8 | x8 | z4 A,2 z2 | x8 | x8 | x8 | x8 | x8 | x8 | x8 | x8 | %16
[M:3/4] x6 |[M:1/4] x2 |[M:4/4] x8 | F2 z2 z4 | x8 | F2 z2 z2 [A,F]2 | x8 | x8 | x8 | x8 | x8 | %27
 x8 | z2 DC B,2 e2 | x8 | z2 DC B,2 e2 | x8 |[M:9/8] x3[K:bass] x3[K:treble] x3 |[M:3/4] x6 |] %34
V:4
 x8 | x8 | x8 | x8 | x8 | x8 | x8 | F,4 z4 | x8 | x8 | x8 | x8 | x8 | x8 | x8 | x8 |[M:3/4] x6 | %17
[M:1/4] x2 |[M:4/4] x8 | x8 | x8 | z4 [C,A,]2 z2 | x8 | x8 | x6[K:bass] x2 | x8 | x7[K:treble] x | %27
 x8 | z2[K:bass] B,,C, D,2[K:treble] [F,A,F]2 | x8 | z2[K:bass] B,,C, D,2[K:treble] [F,A,F]2 | %31
 x2[K:bass] x6 |[M:9/8] x9 |[M:3/4] x6 |] %34

